; generated by PrusaSlicer 2.7.1+win64 on 2024-05-17 at 11:10:16 UTC

; 

; external perimeters extrusion width = 0.42mm
; perimeters extrusion width = 0.44mm
; infill extrusion width = 0.44mm
; solid infill extrusion width = 0.44mm
; top infill extrusion width = 0.40mm
; first layer extrusion width = 0.42mm

M201 X500 Y500 Z100 E5000 ; sets maximum accelerations, mm/sec^2
M203 X500 Y500 Z10 E60 ; sets maximum feedrates, mm / sec
M204 S500 T1000 ; sets acceleration (S) and retract acceleration (R), mm/sec^2
M205 X8.00 Y8.00 Z0.40 E5.00 ; sets the jerk limits, mm/sec
M205 S0 T0 ; sets the minimum extruding and travel feed rate, mm/sec

; printing object wheel.STL id:0 copy 0
; stop printing object wheel.STL id:0 copy 0

;TYPE:Custom
G90 ; use absolute coordinates
M83 ; extruder relative mode
M104 S150 ; set temporary nozzle temp to prevent oozing during homing
M140 S60 ; set final bed temp
G4 S30 ; allow partial nozzle warmup
G28 ; home all axis and restore leveling
G1 Z50 F240
G1 X2.0 Y10 F3000
M104 S210 ; set final nozzle temp
M190 S60 ; wait for bed temp to stabilize
M109 S210 ; wait for nozzle temp to stabilize
G1 Z0.28 F240
G92 E0
G1 X2.0 Y140 E10 F1500 ; prime the nozzle
G1 X2.3 Y140 F5000
G92 E0
G1 X2.3 Y10 E10 F1200 ; prime the nozzle
G92 E0
G21 ; set units to millimeters
G90 ; use absolute coordinates
M83 ; use relative distances for extrusion
; Filament gcode
M107
;LAYER_CHANGE
;Z:0.2
;HEIGHT:0.2
;BEFORE_LAYER_CHANGE
G92 E0
;0.2


G1 E-.8 F1800
G1 Z.2 F9000
;AFTER_LAYER_CHANGE
;0.2
G1 X86.883 Y85.929
G1 Z.2
G1 E.8 F1800
M204 S500
;TYPE:Skirt/Brim
;WIDTH:0.42
G1 F1200
G1 X89.345 Y83.794 E.10218
G1 X92.492 Y81.588 E.1205
G1 X95.456 Y79.962 E.106
G1 X98.57 Y78.645 E.10601
G1 X101.801 Y77.65 E.106
G1 X105.116 Y76.986 E.106
G1 X108.481 Y76.661 E.106
G1 X111.861 Y76.679 E.10598
G1 X115.223 Y77.038 E.10601
G1 X118.531 Y77.735 E.106
G1 X121.751 Y78.764 E.10599
G1 X124.851 Y80.113 E.106
G1 X127.798 Y81.769 E.10599
G1 X130.563 Y83.714 E.106
G1 X133.117 Y85.93 E.10602
G1 X135.433 Y88.392 E.10598
G1 X137.489 Y91.076 E.10601
G1 X139.096 Y93.655 E.09528
G1 X140.601 Y96.682 E.10599
G1 X141.791 Y99.846 E.10599
G1 X142.655 Y103.115 E.10602
G1 X143.184 Y106.454 E.106
G1 X143.373 Y109.829 E.10599
G1 X143.219 Y113.206 E.10599
G1 X142.724 Y116.55 E.10599
G1 X141.893 Y119.827 E.106
G1 X140.736 Y123.004 E.10601
G1 X139.262 Y126.046 E.10599
G1 X137.489 Y128.924 E.10599
G1 X135.433 Y131.608 E.10601
G1 X133.117 Y134.07 E.10598
G1 X130.563 Y136.286 E.10602
G1 X127.508 Y138.412 E.1167
G1 X124.544 Y140.038 E.106
G1 X121.43 Y141.355 E.10601
G1 X118.199 Y142.35 E.106
G1 X114.884 Y143.014 E.106
G1 X111.519 Y143.339 E.106
G1 X108.139 Y143.321 E.10598
G1 X105.115 Y143.014 E.0953
G1 X101.801 Y142.35 E.10597
G1 X98.57 Y141.355 E.106
G1 X95.456 Y140.038 E.10601
G1 X92.492 Y138.412 E.106
G1 X89.708 Y136.495 E.10598
G1 X87.131 Y134.306 E.10602
G1 X84.79 Y131.868 E.10598
G1 X82.707 Y129.205 E.10601
G1 X80.904 Y126.345 E.10601
G1 X79.399 Y123.318 E.10599
G1 X78.209 Y120.154 E.10599
G1 X77.345 Y116.885 E.10602
G1 X76.816 Y113.546 E.106
G1 X76.627 Y110.171 E.10599
G1 X76.781 Y106.794 E.10599
G1 X77.276 Y103.45 E.10599
G1 X78.107 Y100.173 E.106
G1 X79.264 Y96.996 E.10601
G1 X80.738 Y93.954 E.10599
G1 X82.511 Y91.076 E.10599
G1 X84.567 Y88.392 E.10601
G1 X86.842 Y85.973 E.10412
; printing object wheel.STL id:0 copy 0
;WIPE_START
G1 F7200
G1 X86.883 Y85.929 E-.01428
G1 X89.345 Y83.794 E-.77396
G1 X89.386 Y83.766 E-.01176
;WIPE_END
G1 X90.065 Y89.029 F9000
G1 E.8 F1800
;TYPE:Perimeter
;WIDTH:0.419999
G1 F1200
G1 X92.289 Y87.119 E.09192
G1 X94.695 Y85.445 E.0919
G1 X97.257 Y84.023 E.09187
G1 X99.951 Y82.867 E.09192
G1 X102.748 Y81.989 E.09192
G1 X105.619 Y81.399 E.0919
G1 X108.535 Y81.103 E.0919
G1 X111.465 Y81.103 E.09187
G1 X114.381 Y81.399 E.0919
G1 X117.252 Y81.989 E.0919
G1 X120.049 Y82.867 E.09192
G1 X122.743 Y84.023 E.09192
G1 X125.305 Y85.445 E.09187
G1 X127.711 Y87.119 E.0919
G1 X129.935 Y89.029 E.09192
G1 X131.954 Y91.153 E.09188
G1 X133.748 Y93.471 E.0919
G1 X135.299 Y95.958 E.0919
G1 X136.59 Y98.59 E.09192
G1 X137.608 Y101.338 E.09188
G1 X138.342 Y104.176 E.09191
G1 X138.786 Y107.073 E.09189
G1 X138.934 Y110 E.09189
G1 X138.902 Y110.642 E.02015
G1 X138.786 Y112.927 E.07174
G1 X138.342 Y115.824 E.09189
G1 X137.608 Y118.662 E.09191
G1 X136.59 Y121.41 E.09188
G1 X135.299 Y124.042 E.09192
G1 X133.748 Y126.529 E.0919
G1 X131.954 Y128.847 E.0919
G1 X129.935 Y130.971 E.09188
G1 X127.711 Y132.881 E.09192
G1 X125.305 Y134.555 E.0919
G1 X122.743 Y135.978 E.09189
G1 X120.049 Y137.133 E.0919
G1 X117.252 Y138.011 E.09192
G1 X114.381 Y138.601 E.0919
G1 X111.465 Y138.897 E.0919
G1 X108.535 Y138.897 E.09187
G1 X105.619 Y138.601 E.0919
G1 X102.748 Y138.011 E.0919
G1 X99.951 Y137.133 E.09192
G1 X97.257 Y135.978 E.0919
G1 X94.695 Y134.555 E.09189
G1 X92.289 Y132.881 E.0919
G1 X90.065 Y130.971 E.09192
G1 X88.046 Y128.847 E.09188
G1 X86.252 Y126.529 E.0919
G1 X84.701 Y124.042 E.0919
G1 X83.41 Y121.41 E.09192
G1 X82.392 Y118.662 E.09188
G1 X81.658 Y115.824 E.09191
G1 X81.214 Y112.927 E.09189
G1 X81.066 Y110 E.09189
G1 X81.214 Y107.073 E.09189
G1 X81.658 Y104.176 E.09189
G1 X82.392 Y101.338 E.09191
G1 X83.41 Y98.59 E.09188
G1 X84.701 Y95.958 E.09192
G1 X86.252 Y93.471 E.0919
G1 X88.046 Y91.153 E.0919
G1 X90.024 Y89.072 E.09002
G1 X89.805 Y88.755 F9000
G1 F1200
G1 X92.058 Y86.821 E.0931
G1 X94.495 Y85.125 E.09309
G1 X97.091 Y83.684 E.09309
G1 X99.82 Y82.513 E.09311
G1 X102.653 Y81.624 E.0931
G1 X105.561 Y81.026 E.09309
G1 X108.515 Y80.726 E.0931
G1 X111.485 Y80.726 E.09312
G1 X114.439 Y81.026 E.0931
G1 X117.347 Y81.624 E.09309
G1 X120.18 Y82.513 E.0931
G1 X122.909 Y83.684 E.09311
G1 X125.505 Y85.125 E.09309
G1 X127.942 Y86.821 E.09309
G1 X130.195 Y88.755 E.0931
G1 X132.241 Y90.907 E.0931
G1 X134.058 Y93.255 E.09309
G1 X135.629 Y95.775 E.09311
G1 X136.937 Y98.441 E.09311
G1 X137.968 Y101.225 E.09308
G1 X138.712 Y104.1 E.09311
G1 X139.162 Y107.035 E.0931
G1 X139.312 Y110 E.09308
G1 X139.279 Y110.661 E.02075
G1 X139.162 Y112.965 E.07233
G1 X138.712 Y115.9 E.0931
G1 X137.968 Y118.775 E.09311
G1 X136.937 Y121.559 E.09308
G1 X135.629 Y124.225 E.09311
G1 X134.058 Y126.745 E.09311
G1 X132.241 Y129.093 E.09309
G1 X130.195 Y131.245 E.0931
G1 X127.942 Y133.179 E.0931
G1 X125.505 Y134.875 E.09309
G1 X122.909 Y136.316 E.09309
G1 X120.18 Y137.487 E.09311
G1 X117.347 Y138.376 E.0931
G1 X114.439 Y138.974 E.09309
G1 X111.485 Y139.274 E.0931
G1 X108.515 Y139.274 E.09312
G1 X105.561 Y138.974 E.0931
G1 X102.653 Y138.376 E.09309
G1 X99.82 Y137.487 E.0931
G1 X97.091 Y136.316 E.09311
G1 X94.495 Y134.875 E.09309
G1 X92.058 Y133.179 E.09309
G1 X89.805 Y131.245 E.0931
G1 X87.759 Y129.093 E.0931
G1 X85.942 Y126.745 E.09309
G1 X84.371 Y124.225 E.09311
G1 X83.063 Y121.559 E.09311
G1 X82.032 Y118.775 E.09308
G1 X81.288 Y115.9 E.09311
G1 X80.838 Y112.965 E.0931
G1 X80.688 Y110 E.09308
G1 X80.838 Y107.035 E.09308
G1 X81.288 Y104.1 E.0931
G1 X82.032 Y101.225 E.09311
G1 X83.063 Y98.441 E.09308
G1 X84.371 Y95.775 E.09311
G1 X85.942 Y93.255 E.09311
G1 X87.759 Y90.907 E.09309
G1 X89.764 Y88.798 E.09124
G1 X89.545 Y88.481 F9000
;TYPE:External perimeter
G1 F1200
G1 X91.827 Y86.522 E.0943
G1 X94.295 Y84.804 E.09428
G1 X96.925 Y83.345 E.0943
G1 X99.689 Y82.159 E.0943
G1 X102.558 Y81.258 E.09429
G1 X105.504 Y80.653 E.0943
G1 X108.496 Y80.349 E.09429
G1 X111.504 Y80.349 E.09431
G1 X114.496 Y80.653 E.09429
G1 X117.442 Y81.258 E.0943
G1 X120.311 Y82.159 E.09429
G1 X123.075 Y83.345 E.0943
G1 X125.705 Y84.804 E.0943
G1 X128.173 Y86.522 E.09428
G1 X130.455 Y88.481 E.0943
G1 X132.527 Y90.661 E.0943
G1 X134.368 Y93.039 E.09429
G1 X135.959 Y95.592 E.09432
G1 X137.283 Y98.292 E.09429
G1 X138.328 Y101.112 E.09429
G1 X139.082 Y104.024 E.09431
G1 X139.537 Y106.996 E.09427
G1 X139.69 Y110 E.09431
G1 X139.655 Y110.68 E.02135
G1 X139.537 Y113.004 E.07296
G1 X139.082 Y115.976 E.09427
G1 X138.328 Y118.888 E.09431
G1 X137.283 Y121.708 E.09429
G1 X135.959 Y124.408 E.09429
G1 X134.368 Y126.961 E.09432
G1 X132.527 Y129.339 E.09429
G1 X130.455 Y131.519 E.0943
G1 X128.173 Y133.478 E.0943
G1 X125.705 Y135.196 E.09428
G1 X123.075 Y136.655 E.0943
G1 X120.311 Y137.841 E.0943
G1 X117.442 Y138.742 E.09429
G1 X114.496 Y139.347 E.0943
G1 X111.504 Y139.651 E.09429
G1 X108.496 Y139.651 E.09431
G1 X105.504 Y139.347 E.09429
G1 X102.558 Y138.742 E.0943
G1 X99.689 Y137.841 E.09429
G1 X96.925 Y136.655 E.0943
G1 X94.295 Y135.196 E.0943
G1 X91.827 Y133.478 E.09428
G1 X89.545 Y131.519 E.0943
G1 X87.473 Y129.339 E.0943
G1 X85.632 Y126.961 E.09429
G1 X84.041 Y124.408 E.09432
G1 X82.717 Y121.708 E.09429
G1 X81.672 Y118.888 E.09429
G1 X80.918 Y115.976 E.09431
G1 X80.463 Y113.004 E.09427
G1 X80.31 Y110 E.09431
G1 X80.463 Y106.996 E.09431
G1 X80.918 Y104.024 E.09427
G1 X81.672 Y101.112 E.09431
G1 X82.717 Y98.292 E.09429
G1 X84.041 Y95.592 E.09429
G1 X85.632 Y93.039 E.09432
G1 X87.473 Y90.661 E.09429
G1 X89.503 Y88.525 E.09239
;WIPE_START
G1 F7200
G1 X89.545 Y88.481 E-.01445
G1 X91.827 Y86.522 E-.71429
G1 X92.073 Y86.351 E-.07126
;WIPE_END
G1 X107.317 Y107.672 F9000
G1 E.8 F1800
;TYPE:Perimeter
G1 F1200
G1 X107.648 Y107.325 E.01504
G1 X108.148 Y106.957 E.01947
G1 X108.705 Y106.682 E.01948
G1 X109.212 Y106.531 E.01659
G1 X109.903 Y106.44 E.02185
G1 X110.532 Y106.478 E.01976
G1 X111.141 Y106.626 E.01965
G1 X111.709 Y106.875 E.01945
G1 X112.226 Y107.219 E.01947
G1 X112.675 Y107.648 E.01947
G1 X113.043 Y108.148 E.01947
G1 X113.318 Y108.705 E.01948
G1 X113.493 Y109.301 E.01948
G1 X113.561 Y109.918 E.01946
G1 X113.521 Y110.537 E.01945
G1 X113.374 Y111.141 E.01949
G1 X113.125 Y111.709 E.01945
G1 X112.781 Y112.226 E.01947
G1 X112.352 Y112.675 E.01947
G1 X111.852 Y113.043 E.01947
G1 X111.295 Y113.318 E.01948
G1 X110.788 Y113.469 E.01659
G1 X110.082 Y113.561 E.02232
G1 X109.463 Y113.521 E.01945
G1 X108.859 Y113.374 E.01949
G1 X108.291 Y113.125 E.01945
G1 X107.774 Y112.781 E.01947
G1 X107.325 Y112.352 E.01947
G1 X106.957 Y111.852 E.01947
G1 X106.682 Y111.295 E.01948
G1 X106.507 Y110.699 E.01948
G1 X106.439 Y110.082 E.01946
G1 X106.439 Y109.918 E.00514
G1 X106.485 Y109.406 E.01612
G1 X106.626 Y108.859 E.01771
G1 X106.875 Y108.291 E.01945
G1 X107.219 Y107.774 E.01947
G1 X107.276 Y107.715 E.00257
G1 X107.591 Y107.926 F9000
G1 F1200
G1 X107.915 Y107.592 E.01459
G1 X108.365 Y107.266 E.01742
G1 X108.864 Y107.024 E.01739
G1 X109.398 Y106.872 E.01741
G1 X109.936 Y106.816 E.01696
G1 X110.501 Y106.854 E.01776
G1 X111.043 Y106.99 E.01752
G1 X111.55 Y107.217 E.01742
G1 X112.01 Y107.528 E.01741
G1 X112.408 Y107.915 E.01741
G1 X112.734 Y108.365 E.01742
G1 X112.976 Y108.864 E.01739
G1 X113.128 Y109.398 E.01741
G1 X113.185 Y109.951 E.01743
G1 X113.146 Y110.505 E.01741
G1 X113.01 Y111.043 E.0174
G1 X112.783 Y111.55 E.01742
G1 X112.472 Y112.01 E.01741
G1 X112.085 Y112.408 E.01741
G1 X111.635 Y112.734 E.01742
G1 X111.136 Y112.976 E.01739
G1 X110.602 Y113.128 E.01741
G1 X110.049 Y113.185 E.01743
G1 X109.495 Y113.146 E.01741
G1 X108.957 Y113.01 E.0174
G1 X108.45 Y112.783 E.01742
G1 X107.99 Y112.472 E.01741
G1 X107.592 Y112.085 E.01741
G1 X107.266 Y111.635 E.01742
G1 X107.024 Y111.136 E.01739
G1 X106.872 Y110.602 E.01741
G1 X106.815 Y109.951 E.02049
G1 X106.864 Y109.428 E.01647
G1 X106.995 Y108.939 E.01587
G1 X107.217 Y108.45 E.01684
G1 X107.528 Y107.99 E.01741
G1 X107.549 Y107.969 E.00093
G1 X107.858 Y108.181 F9000
;TYPE:External perimeter
G1 F1200
G1 X108.207 Y107.837 E.01536
G1 X108.609 Y107.558 E.01534
G1 X109.054 Y107.354 E.01535
G1 X109.528 Y107.23 E.01536
G1 X110 Y107.191 E.01485
G1 X110.504 Y107.236 E.01587
G1 X110.976 Y107.365 E.01534
G1 X111.419 Y107.575 E.01537
G1 X111.819 Y107.858 E.01536
G1 X112.163 Y108.207 E.01536
G1 X112.442 Y108.609 E.01534
G1 X112.646 Y109.054 E.01535
G1 X112.77 Y109.528 E.01536
G1 X112.81 Y110.016 E.01535
G1 X112.764 Y110.504 E.01537
G1 X112.635 Y110.976 E.01534
G1 X112.32 Y111.569 E.02105
G1 X112.142 Y111.819 E.00962
G1 X111.793 Y112.163 E.01536
G1 X111.391 Y112.442 E.01534
G1 X110.946 Y112.646 E.01535
G1 X110.472 Y112.77 E.01536
G1 X109.984 Y112.81 E.01535
G1 X109.408 Y112.741 E.01819
G1 X109.024 Y112.635 E.01249
G1 X108.581 Y112.425 E.01537
G1 X108.181 Y112.142 E.01536
G1 X107.837 Y111.793 E.01536
G1 X107.558 Y111.391 E.01534
G1 X107.354 Y110.946 E.01535
G1 X107.23 Y110.472 E.01536
G1 X107.19 Y109.984 E.01535
G1 X107.236 Y109.496 E.01537
G1 X107.365 Y109.024 E.01534
G1 X107.68 Y108.431 E.02105
G1 X107.823 Y108.23 E.00773
;WIPE_START
G1 F7200
G1 X107.858 Y108.181 E-.0143
G1 X108.207 Y107.837 E-.11638
G1 X108.609 Y107.558 E-.11622
G1 X109.054 Y107.354 E-.11626
G1 X109.528 Y107.23 E-.11636
G1 X110 Y107.191 E-.11248
G1 X110.504 Y107.236 E-.12018
G1 X110.861 Y107.334 E-.08782
;WIPE_END
G1 X132.332 Y91.838 F9000
G1 E.8 F1800
;TYPE:Solid infill
;WIDTH:0.422173
G1 F1200
G1 X129.725 Y89.231 E.11627
G1 X127.533 Y87.349 E.09111
G1 X126.789 Y86.831 E.02859
G1 X133.22 Y93.262 E.2868
G1 X133.51 Y93.637 E.01495
G1 X134.257 Y94.836 E.04455
G1 X125.065 Y85.644 E.40994
G1 X123.86 Y84.975 E.04346
G1 X135.103 Y96.218 E.50141
G1 X135.619 Y97.27 E.03695
G1 X122.654 Y84.305 E.5782
G1 X121.706 Y83.894 E.03258
G1 X136.136 Y98.323 E.64352
G1 X136.322 Y98.704 E.01337
G1 X136.524 Y99.248 E.0183
G1 X120.766 Y83.49 E.70276
G1 X119.847 Y83.108 E.03138
G1 X136.839 Y100.1 E.7578
G1 X137.155 Y100.951 E.02863
G1 X119.066 Y82.862 E.80672
G1 X118.284 Y82.617 E.02584
G1 X137.413 Y101.746 E.8531
G1 X137.601 Y102.47 E.02359
G1 X117.503 Y82.372 E.89632
G1 X117.18 Y82.271 E.01067
G1 X116.783 Y82.189 E.01278
G1 X137.788 Y103.194 E.93677
G1 X137.975 Y103.918 E.02358
G1 X116.108 Y82.05 E.97523
G1 X115.433 Y81.912 E.02173
G1 X138.112 Y104.59 E1.0114
G1 X138.209 Y105.224 E.02023
G1 X114.758 Y81.773 E1.04585
G1 X114.337 Y81.687 E.01355
G1 X114.113 Y81.664 E.0071
G1 X138.306 Y105.857 E1.07894
G1 X138.403 Y106.491 E.02023
G1 X113.515 Y81.603 E1.10994
G1 X112.918 Y81.542 E.01892
G1 X138.498 Y107.122 E1.1408
G1 X138.526 Y107.687 E.01784
G1 X112.321 Y81.482 E1.16867
G1 X111.724 Y81.421 E.01892
G1 X138.555 Y108.252 E1.19659
G1 X138.584 Y108.817 E.01784
G1 X111.16 Y81.393 E1.22303
G1 X110.624 Y81.393 E.0169
G1 X138.612 Y109.382 E1.24821
G1 X138.641 Y109.947 E.01784
G1 X110.087 Y81.393 E1.27343
G1 X109.551 Y81.393 E.0169
G1 X138.62 Y110.462 E1.2964
G1 X138.594 Y110.973 E.01614
G1 X109.015 Y81.393 E1.31916
G1 X108.485 Y81.4 E.01672
G1 X138.569 Y111.483 E1.34164
G1 X138.543 Y111.994 E.01614
G1 X107.998 Y81.449 E1.36222
G1 X107.511 Y81.499 E.01544
G1 X138.517 Y112.504 E1.38276
G1 X138.481 Y113.004 E.01581
G1 X107.024 Y81.548 E1.40287
G1 X106.538 Y81.598 E.01541
G1 X138.409 Y113.469 E1.42136
G1 X138.338 Y113.934 E.01483
G1 X106.051 Y81.647 E1.43991
G1 X105.572 Y81.705 E.01522
G1 X138.267 Y114.399 E1.45808
G1 X138.196 Y114.865 E.01486
G1 X105.128 Y81.797 E1.47474
G1 X104.683 Y81.888 E.01432
G1 X138.124 Y115.33 E1.4914
G1 X138.051 Y115.792 E.01475
G1 X104.238 Y81.979 E1.50797
G1 X103.793 Y82.071 E.01433
G1 X137.94 Y116.218 E1.52286
G1 X137.83 Y116.644 E.01387
G1 X103.348 Y82.162 E1.5378
G1 X102.903 Y82.254 E.01433
G1 X137.72 Y117.07 E1.55272
G1 X137.609 Y117.496 E.01388
G1 X102.488 Y82.375 E1.5663
G1 X102.08 Y82.503 E.01348
G1 X137.499 Y117.922 E1.57959
G1 X137.389 Y118.348 E.01387
G1 X101.671 Y82.631 E1.5929
G1 X101.263 Y82.759 E.01348
G1 X137.262 Y118.758 E1.60546
G1 X137.117 Y119.15 E.01318
G1 X100.855 Y82.887 E1.61721
G1 X100.447 Y83.015 E.01348
G1 X136.972 Y119.541 E1.62894
G1 X136.827 Y119.932 E.01315
G1 X100.039 Y83.145 E1.64062
G1 X99.664 Y83.306 E.01287
G1 X136.682 Y120.324 E1.6509
G1 X136.537 Y120.715 E.01315
G1 X99.289 Y83.467 E1.66116
G1 X98.914 Y83.628 E.01287
G1 X136.392 Y121.107 E1.67144
G1 X136.231 Y121.482 E.01287
G1 X98.538 Y83.789 E1.681
G1 X98.163 Y83.95 E.01287
G1 X136.055 Y121.842 E1.68988
G1 X135.878 Y122.201 E.01262
G1 X97.788 Y84.111 E1.69871
G1 X97.412 Y84.272 E.0129
G1 X135.702 Y122.561 E1.70761
G1 X135.525 Y122.921 E.01265
G1 X97.065 Y84.461 E1.71521
G1 X96.72 Y84.653 E.01245
G1 X135.349 Y123.281 E1.72272
G1 X135.172 Y123.641 E.01265
G1 X96.375 Y84.844 E1.73024
G1 X96.031 Y85.036 E.01242
G1 X134.987 Y123.992 E1.73733
G1 X134.782 Y124.323 E.01228
